X: 666
T: Laicheng bainian
L: 1/8
M: 4/4
K: Bb
d2d f' d' c'b2 [I:setbarnb 1]| 
d'2g fd4 | 
d2d f' d' c'b2 | 
d'2g fd4 | 
b gb2d fd2 | 
b g b b d fd2 | 
b gb2d fd2 | 
b g b b d fd2 | 
b c' f' d'c'4 | 
d' c' d' f' d' c' b b | 
d f g bf4 | 
g bf6 |]

@@@ Tune index: 9540
